!! 00000] TT[WS
!!!OTL: Qianshan houshan qu daduan
!!!ARE: Asia, China,ÿShanxi Hequ
!! Ethnic Group: Han
!! WI, 22
!!!SCT: J0025
!!!YEM: Copyright 1995, estate of Helmut Schaffrath.
**kern
*ICvox
*Ivox
*M2/4
*k[f#c#]
*D:
{8a
4b
16ee
16f#
=1
8a
4a
8f#
=2
8d
8B
8e
8f#
=3
2B}
=4
{8a
4b
16ee
16f#
=5
8a
4a
8f#
=6
8d
8B
8a
16f#
16d
=7
2e}
==
!!!AGN: Shange, Shanqu. Qingge
!!!ONB: ESAC (Essen Associative Code) Database: CHINA
!!!AMT: simple duple
!!!AIN: vox
!!!EED: Helmut Schaffrath
!!!EEV: 1.0
*-
